svg/fluentui-system-icons/ic_fluent_contract_down_left_28_regular.svg

<svg width="28" height="28" viewBox="0 0 28 28" fill="none" xmlns="http://www.w3.org/2000/svg">
<path d="M24.7803 4.28033C25.0732 3.98744 25.0732 3.51256 24.7803 3.21967C24.4874 2.92678 24.0126 2.92678 23.7197 3.21967L17.0002 9.93919V3.75012C17.0002 3.33591 16.6644 3.00012 16.2502 3.00012C15.8359 3.00012 15.5002 3.33591 15.5002 3.75012V11.7501C15.5002 12.1643 15.8359 12.5001 16.2502 12.5001H24.25C24.6642 12.5001 25 12.1643 25 11.7501C25 11.3359 24.6642 11.0001 24.25 11.0001H18.0605L24.7803 4.28033ZM4.5 6.75012V14H11.25C12.7688 14 14 15.2312 14 16.75V23.5001H21.25C22.4926 23.5001 23.5 22.4928 23.5 21.2501V16.2501C23.5 15.8359 23.8358 15.5001 24.25 15.5001C24.6642 15.5001 25 15.8359 25 16.2501V21.2501C25 23.3212 23.3211 25.0001 21.25 25.0001H6.75C4.67893 25.0001 3 23.3212 3 21.2501V6.75012C3 4.67905 4.67893 3.00012 6.75 3.00012H11.75C12.1642 3.00012 12.5 3.33591 12.5 3.75012C12.5 4.16434 12.1642 4.50012 11.75 4.50012H6.75C5.50736 4.50012 4.5 5.50748 4.5 6.75012ZM4.5 15.5V21.2501C4.5 22.4928 5.50736 23.5001 6.75 23.5001H12.5V16.75C12.5 16.0596 11.9404 15.5 11.25 15.5H4.5Z" fill="#212121"/>
</svg>

<svg xmlns="http://www.w3.org/2000/svg" width="28" height="28"><path d="M24.78 4.28a.75.75 0 0 0-1.06-1.06L17 9.94V3.75a.75.75 0 0 0-1.5 0v8c0 .414.336.75.75.75h8a.75.75 0 0 0 0-1.5h-6.19l6.72-6.72ZM4.5 6.75V14h6.75A2.75 2.75 0 0 1 14 16.75v6.75h7.25a2.25 2.25 0 0 0 2.25-2.25v-5a.75.75 0 0 1 1.5 0v5A3.75 3.75 0 0 1 21.25 25H6.75A3.75 3.75 0 0 1 3 21.25V6.75A3.75 3.75 0 0 1 6.75 3h5a.75.75 0 0 1 0 1.5h-5A2.25 2.25 0 0 0 4.5 6.75Zm0 8.75v5.75a2.25 2.25 0 0 0 2.25 2.25h5.75v-6.75c0-.69-.56-1.25-1.25-1.25H4.5Z"/></svg>
